X:1
T:6 Partitas
T:6 Partitas – BWV 825-830
T:Johann Sebastian Bach
T:Partita 3 in A minor BWV 827
T:Creative Commons copyright waiver (CC0 1.0 Universal)
T:Creative Commons copyright waiver (CC0 1.0 Universal)
T:Creative Commons copyright waiver (CC0 1.0 Universal)
T:Creative Commons copyright waiver (CC0 1.0 Universal)
T:Creative Commons copyright waiver (CC0 1.0 Universal)
T:Creative Commons copyright waiver (CC0 1.0 Universal)
T:Creative Commons copyright waiver (CC0 1.0 Universal)
T:Creative Commons copyright waiver (CC0 1.0 Universal)
T:Creative Commons copyright waiver (CC0 1.0 Universal)
T:Creative Commons copyright waiver (CC0 1.0 Universal)
T:Creative Commons copyright waiver (CC0 1.0 Universal)
T:Creative Commons copyright waiver (CC0 1.0 Universal)
T:Creative Commons copyright waiver (CC0 1.0 Universal)
C:Johann Sebastian Bach
Z:Creative Commons copyright waiver (CC0 1.0 Universal)
%%score { ( 1 3 4 5 ) | ( 2 6 7 ) }
L:1/8
Q:1/4=66
M:3/8
K:C
V:1 treble nm="Harpsichord" snm="Hch."
V:3 treble 
V:4 treble 
V:5 treble 
V:2 bass 
V:6 bass 
V:7 bass 
V:1
"^Moderato"!mf!!<(! z/ A/B/^G/A/c/!<)! | D/B/!>(!E/D/C/B,/!>)! |!<(! (CE!<)!A- | A^GB-) | %4
"_cresc." B/A/^G/A/B/c/ | d/f/B/f/e/d/ | cB/A/!f!f- | fe/d/g | e/c/d/!<(!B/c/e/!<)! | %9
 a/B/c/A/"_dim."B/d/ | g/A/B/^G/A/c/ | (fd=G) | (ecF) | d/E/!<(!F/D/E/!<)!^G/ |!>(! cB!>)!A | %15
 ^G/A/B/F/E/D/ |!p! C/E/F/D/E/A/ | B/E/!<(!F/D/E/B/ | c/!<)!E/F/D/!>(!E/c/ | B/A/^G/B/!>)!E | %20
!mf! z/ e/f/!<(!d/e/c/ | B/!<)!e/!>(!f/d/e/B/ | A/e/!>)!f/d/e/A/ | ^G/B/E/!<(!c/d/B/!<)! | %24
!>(! c/e/A/!>)!^G/A/c/ |"_dim." ^F/A/D/!<(!B/c/A/!<)! |!>(! B/d/!courtesy!=G/!>)!^F/G/B/ | %27
 E/G/C/A/B/G/ |!p! A/c/^F/E/F/A/ | ^D/^F/B,/G/A/F/ |!mf!!<(! GBe-!<)! | e^d^f- | %32
 f/e/^f/!<(!^d/e/g/!<)! | A/!>(!^f/B/A/G/!>)!^F/ | G"_cresc."^F/E/c- | cB/A/!courtesy!=d | %36
 B/c/d/e/^f/g/ | a/c'/^f/c'/b/a/ | g"_dim."be | cad | Bgc |!p! A/^F/G/!<(!E/F/A/!<)! | %42
!>(! d/E/^F/^D/!>)!E/G/ | c/^D/E/!<(!^C/D/^F/!<)! |!>(! B/E/A/B,/!courtesy!=C/A,/!>)! | %45
 B,/^D/^F/"_cresc."A/G/F/ | G/B/c/A/B/e/ | ^f/B/c/A/B/f/ | g/B/c/A/B/g/ |!>(! ^f/e/^d/f/B-!>)! | %50
!p! Be/^f/g | (APG/)^F/G/A/ | B/G/A/^F/G/e/ | P^F3- |"_cresc." F/B/e/^d/e/g/ | %55
 c/e/A/!<(!^f/g/e/!<)! |!>(! ^f/a/d/!>)!^c/d/f/ | B/d/G/!<(!e/^f/^d/!<)! |!>(! e/g/c/!>)!B/c/e/ | %59
 A/c/^F/!<(!^d/e/^c/ | ^d/^f/B/g/a/f/!<)! |!f!!<(! g3-!<)! | g/e/^f/^d/e/c'/ | b/e/^f/^d/e/!>(!b/ | %64
 .aP^f3/2e/4f/4!>)! |!p! e3- |!<(! e/!courtesy!=B/^c/e/g/d/!<)! |!f! e/g/_b/g/e/f/ | %68
 g/!>(!e/^c/_B/A/!>)!g/ |!p! a3- | a/A/B/d/f/c/ |!f! d/f/_a/f/d/e/ | f/!>(!d/B/_A/G/!>)!f/ | %73
"_cresc." e3- |!f! e/a/b/^g/a/c'/ | d/^g/a/^f/g/b/ | c/a/!>(!!courtesy!=f/d/B/d/ | P^G>^F!>)!E | %78
!mf! z/ e/!courtesy!=f/d/!<(!e/c/ | B/e/f/!<)!!>(!d/e/B/ | A/e/!>)!f/d/e/A/ | ^G/B/E/c/d/B/ | %82
 c/e/!<(!A/f/g/e/!<)! |!>(! f/a/d/c/d/!>)!f/ | B/d/G/!<(!e/f/d/!<)! |!>(!"_dim." e/g/c/!>)!B/c/e/ | %86
 A/c/F/d/e/c/ | d/f/B/A/B/d/ | ^G/B/E/c/d/B/ | c/e/A/"_cresc."^G/A/c/ | d/f/A/^G/A/d/ | %91
 e/g/A/^G/A/e/ |!f! f3- |!>(! f/A/B/!>)!^G/A/f/ | e/A/B/^G/A/e/ | .d(.PB3/2A/4B/4) | %96
!p! A/E/F/D/E/A/ | B/E/F/!<(!D/E/B/ | c/E/!<)!F/D/E/c/ |!>(! B/A/^G/^F/E/D/!>)! | CA3/2^G/4A/4 | %101
 DA3/2^G/4A/4 | E/^G/A/B/c- | c/A/B/!<(!^G/A/c/!<)! | f3- | f/d/!<(!e/^c/d/f/!<)! |!f! b3- | %107
 b/!courtesy!=c/d/B/c/"_dim."e/ | a/B/c/A/B/d/ | g/A/B/^G/A/c/ | fd!courtesy!=G | ecF | %112
!p! d/E/F/D/E/^G/ | c/^D/E/^C/D/^F/ |"_cresc." A/^F/^D/=C/B,/A/ | ^G/B/d/!courtesy!=f/!f!e- | %116
 e/A/!>(!c/B/A/^G/!>)! |!mf! A/E/F/D/_B/^G/ | A/c/E/A/!courtesy!=B/^G/ | A3 |] %120
[M:4/4][Q:1/8=112]"^Andante."!f!!>(! (Me-e/4d/4c/4B/4)!>)! | %121
!mf! (c/B/4A/4d/c/4B/4 e/d/4c/<f/A/4) ^G/4A/4B/4d/4-d- d-d/c/4B/4 | %122
 c2- c/>A/!>(!d/>F/ (PF!>)!E-) E/4=G/4F/4!<(!E/4A/B/4!<)!c/4 | %123
 (c2 c/4)A/4G/4^F/4B/c/4d/4- (d2 d/4)!courtesy!=f/4e/4d/4-^g/a/4b/4 | %124
!f! e>a- a/>f/e/>d/!>(! PcB/A/!>)! !^!Me/>!mf!d/c/4B/4c/4e/4 | %125
 g/4d/4c/4B/4c/4e/4d/4c/4 a2-!<(! a/4d/4e/4^f/<g/a/4!<)! Mb2- | %126
!<(! b/4e/4^f/4^g/<a/b/4!<)! c'/>f/M=g/>a/!>(! P^d/>^c/B-!>)! B/4B/4c/4d/<Pc/B/4 | %127
"_cresc." e/4B/4=c/4=d/<Pc/B/4 z/4 A/4B/4c/<PB/A/4 z/4 e/4^f/4g/<Pf/e/4 z/4!f! e/4^f/4g/<Pf/e/4 | %128
 z/4 =a/4g/4"_dim."^f/4g- gf/>^d/!>(! (d!>)!e) z2 ::!mf! B/=d/4c/4B/4c/4d/ | %130
!<(! ^G/A/4B/4E/G/4B/4 d/c/4B/4!<)!f/e/4d/4 c/d/4e/4-e"_cresc." A/4B/4c/4d/4e/4f/4=g/ | %131
!f! ^c/d/4e/4!<(!A/c/4e/4 g/f/4e/4!<)!_b/a/4g/4!>(! f/g/4a/4-a!>)!!<(! d/4f/4e/4d/4g/4a/4!courtesy!_b/-!<)! | %132
 b2!<(! c/4e/4d/4c/4f/4g/4!<)!a/- a2!<(! B/4d/4c/4_B/4e/4f/4g/!<)! | %133
!mf! g/4g/4f/4e/<f/d/4-!>(! d/^c/4d/4e/4d/4!>)!c/ d2 z2 | %134
!<(! B/4A/4G/4^F/4G/4B/4d/4e/4!<)! !courtesy!=f2- f/4f/4e/4d/<e/c/4!>(! A2-!>)! | %135
!p! A/4^G/4A/4B/4E/4d/4c/4B/4 c-c/4c/4B/4A/4 G2!<(! AB-!<)! | %136
"_cresc." B/4A/4B/4c/<PB/A/4 ^G/4B/4c/4d/<Pc/B/4!f! A/4e/4^f/4=g/<Pf/e/4 z/4!<(! a/4b/4c'/4!<)!!>(!b/4a/4^g/4!>)!a/4 | %137
 =d/4!courtesy!=f/4e/4d/4e/4"_dim."B/4c/4A/4 z/ A/B/>^G/!p! (GA) :| %138
[M:3/4][Q:1/4=120]"^Allegro."[Q:1/4=120]"^Allegro." z/!mf! d/c/B/ | (c>e a>e b>d | %140
 !wedge!c/)e/!<(!^f/^g/!<)! a>e!>(! b>!>)!d | c/A/B/c/ d/e/"_dim."!courtesy!=f/e/ d/c/B/A/ | %142
 ^G/A/B/G/ E4- |!p! E/D/C/B,/ C/A,/C/E/ A/^G/^F/E/ |"_cresc." c/B/A/=G/ =F/D/F/A/ d/^c/B/A/ | %145
 f/e/d/=c/ B/G/B/d/ g/^f/e/d/ | b/a/g/=f/ e/c/e/g/ c'/b/a/g/ |!f! a>d (e/d/^c/d/) (e/d/c/d/) | %148
 g>B !courtesy!=c4- |!f! c>B (c/B/A/B/) (c/B/A/B/) | e>^G A4- | %151
 A/!<(!d/e/f/!<)!!>(! e/d/c/B/!>)! A/^G/A/B/ |!p! .E/(B/^G/=F/ .E/)(c/A/F/ .E/)(d/B/F/ | %153
 E/)c/A/F/ E/B/^G/F/ E/c/A/F/ | E/d/B/F/ E/c/A/F/ E/B/^G/F/ |!<(! E3/2(c/4d/4) Pd3 c/d/!<)! | %156
!f! e2-"_dim." e/d/c/B/ c/e/c/A/ | ^G/B/G/E/ D/F/E/D/ C/E/C/A,/ |!p! ^G,/-B,/-E- E2 :: z/ B/c/A/ | %160
 (^G>!<(!E B>!<)!!>(!D E>!>)!B, | C/)E/F/D/!<(! E>A ^G>d!<)! | %162
 c/e/a/!courtesy!=g/"_dim." f/e/d/c/ B/A/^G/^F/ | E/d/c/B/ Mc4- | %164
!p! c/B/A/!courtesy!=G/ A/F/"_cresc."A/c/ f/e/d/c/ | d/c/B/A/ B/G/B/d/ g/f/e/d/ | %166
 e/d/c/B/ c/A/c/e/ a/g/f/e/ | d/c/B/A/ G/B/c/d/ c/B/A/G/ |!f! c>F (G/F/E/F/) (G/F/E/F/) | %169
 B>D ME4- | E>D (E/D/C/D/) (E/D/C/D/) | G>B, MC4- | C/!<(!F/G/A/!<)! G/!>(!F/E/D/!>)! C/B,/C/D/ | %173
!p! G,>B, C>G, D>G, | E>G, D>G, E>G, | F>G, E>G, F>G, | G/E/F/G/ A/F/E/D/ B/G/A/B/ | %177
 c/A/G/F/ d/B/c/d/ e/c/B/A/ | f/d/e/f/ g/e/d/c/!f! a/f/g/a/ | MB2- B/G/A/B/ c/d/e/f/ | %180
 g/f/!>(!a/g/ f/e/d/c/ e/d/c/B/!>)! |!mf! c2- c/G/c/d/ e/c/d/e/ |!<(! A/^c/e/g/!<)! _b>c d>e | %183
 f2- f/A/d/e/ f/d/e/f/ |!<(! B/^d/^f/a/!<)!!f! c'>d e>f | g2- g/e/^f/^g/ a/g/f/g/ | %186
 a>d ^c/d/e/!courtesy!=f/ !courtesy!=g/f/g/e/ | f/d/e/f/ e/!courtesy!=c/d/e/ d/B/c/d/ | %188
 c/A/^G/A/ d/e/f/e/ d/c/B/A/ |!p! ^G/^F/G/F/ E2- E/(=f/e/d/) | %190
!f! c/e/^g/a/ B/d/^f/=g/"_dim." A/c/e/=f/ | ^G/B/^d/e/ ^F/A/e/^c/ G/B/!courtesy!=d/B/ | %192
 =c/A/=F/E/ B/^G/E/D/!<(! A/^F/^D/=C/ | B,/A/^G/^F/ E/F/B/d/ Mc>B!<)! | e>B c>A ME>^G | %195
!p! AE/-C/- [CE]2 :|[M:3/4]!p![Q:1/4=69]"^Andantino con moto."!<(! (A!<)!!>(!M^G!>)!A) | %197
 (ME(3F/E/D/) (.E.E.E.E) |!>(! (cB)!>)! z (AM^GA) |!>(! (dc)!>)! z (AM^GA) | %200
!>(! (fe)!>)! z!<(! (.e.e.e)!<)! |!mf! e"_cresc."(3f/e/d/ e(3g/f/e/ f(3a/g/f/ | %202
 c(3d/c/B/ c(3e/d/c/ c/g/_B | g(3(g/f/e/) .f!>(!(3(f/e/d/) .e(3(e/d/c/)!>)! | %204
!>(! (ed)!>)! z!f! (c'Mbc') | (Mf(3g/f/e/ .f)!>(!(3a/g/f/ (3g/f/e/ (3f/e/d/!>)! | %206
!>(! (Me!>)!!<(!(3f/e/d/ .e)!<)!!f!(c'bc') | %207
 Md(3f/e/d/ (3g/f/e/!>(! (3f/e/d/ (3e/d/c/ (3d/c/B/!>)! | c3 :| z z2 | z2 z!mf! gfe | %211
!<(! d^f!<)!g z z2 | z2 z!p! (3!courtesy!=f/e/d/ (3e/d/^c/(3d/c/B/ | %213
 (3^c/B/A/ (3d/c/B/"_poco cresc." c z z2 | z2 z"_cresc." (3(d/e/f/) (3(f/g/a/)(3(a/_b/=c'/) | %215
 (3(_b/a/b/ (3c'/b/a/ b)(3(c/d/e/) (3(e/f/g/) (3(g/a/b/) | %216
!f! (3(a/g/a/ (3_b/a/g/ a)!>(!(de^c)!>)! | d3"_dim." (.f.f.f) | %218
 f3!<(! f!<)! (3(e/d/e/!>(! (3f/e/d/)!>)! |"_cresc." (ed/e/ .c)!f!!<(!(a!<)!!>(!M^g!>)!a) | %220
 d(3e/d/c/ (3d/c/B/ (3c/B/A/ (3B/A/^G/ (3A/G/^F/ | (3^G/A/B/ (3A/G/=F/ E!mf!(cMBc) | %222
 (Md(3c/d/e/ .d)!<(!(3B/c/d/ (3c/d/e/ (3d/e/f/ | (3e/d/e/ (3f/e/d/!<)! .e!f!(aM^ga) | %224
 Md(3f/e/d/ (3e/d/c/!>(! (3d/c/B/ (3c/B/A/ (3B/A/!>)!^G/ | A3 :| %226
[M:3/4]!mf![Q:1/4=112]"^Allegro." (A.B) (PBA/B/ c^G) | (A2 E2 A2) | (B.c) (PcB/c/ dA) | %229
 (B2 e2 d2) |!<(! d/c/B/c/-!<)!!f! .f2 .e2 |!<(! B/A/^G/A/-!<)!!f! .d2 .c2 | %232
 z/ B/!<(!A/^G/ A/B/c/d/ e/d/e/!<)!f/ | P^G3 ^F E2 |!p! c6- | c/c/B/"_cresc."c/ d/c/B/c/ a/c/B/c/ | %236
 d6- | d/d/c/d/ e/d/c/d/ b/d/c/d/ |!<(! (e2 ^f^ga!<)!b) |!f! c'/a/=g/a/ b/g/"_dim."^f/g/ a/f/e/f/ | %240
 g/e/^d/e/ ^f2 d2 |1!>(! e6!>)! :|2!>(! e6!>)! |:!p! (B.c) (PcB/c/ dB) | (FE)(FD)(EB) | %245
 (^c.d) (Pdc/d/ ec) | (_BA)(BG)(Ag) | f/!<(!d/^c/d/!<)!!f! _b2 a2 | %248
 e/!<(!d/^c/d/-!<)!!f! .g2 .f2- | f"_dim."efed^c |!p! d6 |!mf! !^!f6 | %252
 f/B/A/B/ !courtesy!=c/B/!<(!A/B/ d/B/A/B/!<)! | !^!e6 | e/A/^G/A/ B/A/G/A/!<(! c/A/G/A/ | %255
 d/e/!<)!f- f/e/d/c/ d/c/B/A/ |!<(! B/c/!<)!d- d/c/B/A/ B/A/^G/^F/ | %257
 E/^G/!<(!^F/E/ A/c/B/A/ d/c/B/A/!<)! | ed/c/!>(! B/A/^G/^F/ E/D/C/B,/!>)! | %259
!p! z/ E/D/E/ ^F/E/D/E/ !courtesy!=G/E/D/E/ | z/"_cresc. poco a poco" ^F/E/F/ ^G/F/E/F/ A/F/E/F/ | %261
 z/ ^G/^F/G/ A/G/F/G/ B/G/F/G/ | z/ A/^G/A/ B/A/G/A/ ^c/A/G/A/ | d/A/^G/A/ e/A/G/A/!f! f2- | %264
 f/d/!courtesy!=c/d/"_dim." e/c/B/c/ d/B/A/B/ | c/A/^G/A/ B2 G2 |!>(! A6!>)! :| %267
[M:2/4]!f![Q:1/4=126]"^Allegro vivace." e/c/A- |!p! A^G/A/ B/c/d/B/ | (d/c/B/.A/)!f! e/d/c/B/ | %270
!p! A/E/A/c/ B/E/B/d/ | c/e/c/A/ c/A/G/F/ | E/G/A/B/ c/F/E/D/ | C/"_cresc."G/A/B/ c/B/c/A/ | %274
 c/B/c/G/ c/B/c/F/ |!<(! E/G/A/B/ c/d/!<)!e- | e/d/e/f/ e/d/c/B/ |!<(! A/G/A/B/ c/d/e/!<)!f/ | %278
!f!!>(! gc e/d/c/!>)!B/ | .Mc2 ::!f! g/e/c- |!p! cB/c/ d/e/f/d/ | (f/e/d/.c/)!f! a/f/d- | %283
!p! d^c/d/ e/f/g/e/ | (g/f/e/.d/)!f! _b/c'/b/g/ | a/d'/a/f/ g/a/g/e/ | f/d'/f/d/ _e/_b/g/e/ | %287
 (^c/A/a) Md!>(!e/c/!>)! | Md2!f! f/d/A- |!p! AB/!courtesy!=c/ d/e/f/d/ | (c/B/A/.G/)!f! e/c/^G- | %291
!p! GA/B/ c/d/e/c/ | B/A/^G/A/"_cresc." d/F/E/D/ | d/^G/^F/E/ d/B/A/G/ | %294
 d/c/B/!courtesy!=f/ e/d/c/B/ | c/B/d/c/ B/A/!>(!^G/A/ | (B/^G/^F/!>)!.E/) e/c/A- | %297
 A!<(!^G/A/ B/c/d/e/!<)! |!f! f/e/d/f/ e/d/c/B/ | c/d/!>(!e/A/ c/B/A/^G/!>)! | .A2 |] %301
[M:12/8][Q:3/8=132]"^Molto Allegro." .E | (A,CE A^GA)"_cresc." (B,DE AGA) | %303
 (CE^G ABc!>(! DcA _Bd!>)!A) | ^G3- G^F=G"_cresc." A3- ABc | B3- B^de!>(! c6-!>)! | %306
 cBA B!>(!^fA- A!>)!G^F"_dim." (G3 | G)AG AeG- G!courtesy!=FE F3- | FFE FdF- FED Ed!mf!E | %309
 c3- cBc d3- def | e3- e^ga f6- |!>(! fed ebd!>)!!mf! !>!c6- | cA^F AFD (!>!B6 | B)GE GEC A6- | %314
 A^F^D!<(! FDB,!<)!!f! G-B^d c3- | c2 ^d ^f3 fef g3- | ge!>(!^g ac'=g!>)! !^!^f6- | %317
"_dim." fe^d e2 B !^!e6- | e!courtesy!=d^c d2 A !^!d6- | d!courtesy!=cB c2 ^G"_cresc." A3- A2 A | %320
 d6- db^g eBe |!mf! Ace a^ga Bde aga | ce^g"_cresc." abc' dc'a _bd'a |!f! ^g=bg eBd cec AE=G | %324
 Faf dAc BdB GDF | E e2- e2!>(! d e6!>)! :: z | z12 | z6 z3 z z!mf! .E | AEC x3"^dim." =GE^C x3 | %330
 FD[I:staff +1]_B, A,^CD B,G,E, ^C,A,G, | F,[I:staff -1] z z z3 z[I:staff +1] ^F,G, B,D=F, | %332
 E,[I:staff -1] z z z3 z[I:staff +1] E,F, A,CE, | %333
 D,[I:staff -1] z z z3 z[I:staff +1] D,E, ^G,B,D, | C,E,F,"_cresc." A,CE, D,^F,G, B,D=F, | %335
[I:staff -1] z6 z3 z z!f! .=B | eB^G E^DE"^dim." =dBG E^DE | cAF E^GA F!courtesy!=DB, ^G,ED | %338
!<(! CEA!<)! c^GA!>(! c^F=G!>)! cEF |!<(! B,DG!<)! B^FG!>(! BEF B!>)!^DE | %340
!<(! A,CE!<)! AE^F A!>(!^DE A^C!>)!^D | G2 z z3"_cresc." G2 z z3 | ^F2 z z3 F2 z z3 | %343
 E2 z z3 z3 z z!f! ^f | b^fd B^AB"_dim." =af^d B^AB | ge=c B^de c!courtesy!=A^F ^DB!f!A | %346
 G z z z ^fg P^g3- gfg | a3- abc'!>(! d2 !courtesy!=f B2!>)!!<(! ^g | a6-!<)! a6- | %349
 a6!>(! g6-!>)! | g2 e f3- f2 e f3- | f2!f! b b2 d d2 B B2 e |!>(! edc dcB A6!>)! :| %353
V:2
 A,A,,A,- | A,^G,E, | z/ A,/B,/!<(!^G,/A,/C/!<)! | D,/B,/!>(!E,/D,/C,/!>)!B,,/ | (C,E,A,- | %5
 A,^G,B,-) | B,/A,/^G,/A,/B,/C/ | D/F/B,/F/E/D/ | (CEA, | (F)DG,) | (ECA,) | %11
 D/B,/C/!<(!A,/B,/D/!<)! |!>(! G/A,/B,/!>)!G,/A,/C/ | F/^G,/A,/^F,/G,/B,/ | %14
 E/A,/D/E,/!courtesy!=F,/D,/ | E,^G,E, | A,A,,A,- | A,/^G,/A,/^F,/G,/E,/ | A,/^G,/A,/B,/C/D/ | %19
 E/F/E/D/C/B,/ | (A,A,,A,) | (!courtesy!=G,G,,G,) | (F,F,,F,) | E,^G,,E,, | A,,B,,C, | D,^F,D, | %26
 G,A,B, | CE,C, | ^F,G,A, | B,^D,B,, | C,/E/!<(!^F/^D/E/G/!<)! | A,/^F/!>(!B,/A,/G,/^F,/!>)! | %32
 G,B,,E,- | E,^D,^F,- | F,/E,/^D,/E,/^F,/G,/ | A,/C/^F,/C/B,/A,/ | G,^F,/E,/C- | CB,/A,/D | %38
 B,/G,/A,/^F,/G,/B,/ | E/^F,/G,/E,/F,/A,/ | D/E,/^F,/D,/E,/G,/ | CA,D, | B,G,C, | %43
 A,/B,,/C,/A,,/B,,/^D,/ | G,^F,E, | ^D,B,,D, | E,E,,E,- | E,/^D,/E,/^C,/D,/B,,/ | E,E,,E, | %49
 B,,/C,/B,,/A,,/G,,/^F,,/ | G,,/B,,/C,/A,,/!<(!B,,/G,,/ | ^F,,/!<)!B,,/!>(!C,/A,,/B,,/!>)!F,,/ | %52
 E,,/B,,/C,/A,,/B,,/E,,/ | ^D,,/^F,,/B,,/G,,/A,,/F,,/ | G,,^F,,E,, | A,,C,A,, | D,E,^F, | G,B,G, | %58
 CE,C, | ^F,A,F, | B,^D,B,, | !wedge!E,/E/^F/^D/E/G/ | A,C^F, | G,B,E, | CA,B, | %65
 E,/^F,/G,/A,/_B,/!courtesy!=D,/ | (^C,E,C,) | (.A,,.^C) z | (E,A,^C,) | %69
 D,/E,/"^cresc."F,/G,/_A,/!courtesy!=C,/ | (B,,D,B,,) | (.G,,.B,) z | (D,G,B,,) | %73
 C,/D,/E,/B,,/C,/A,,/ | (.F,,.F,) z | (.B,,.B,) z | (A,D,F,) | E,/F,/E,/D,/C,/B,,/ | A,,A,A,, | %79
 G,,G,G,, | F,,F,F,, | E,,^G,,E,, | A,,C,A,, | D,E,F, | G,B,G, | C,D,E, | F,A,F, | B,,C,D, | %88
 E,^G,E, | A,CA, | F,E,D, | ^C,B,,A,, |!<(! D,/F,/A,/E,/F,/A,/!<)! | DFB, | CEA, | F,D,E, | %96
 A,A,,A,- | A,/^G,/A,/^F,/G,/E,/ | A,A,,A, | E,/F,/E,/D,/C,/B,,/ | A,,/E,/F,/D,/E,/A,,/ | %101
 B,,/E,/F,/D,/E,/B,,/ | C,/E,/F,/D,/E,/C,/ | D,3- |!<(! D,/B,,/C,/A,,/B,,/D,/!<)! | ^G,3- | %106
 G,/E,/!<(!!courtesy!=F,/D,/E,/^G,/!<)! | CEA, | FDG, | ECF, | D/B,/C/!<(!A,/B,/D/!<)! | %111
 G/A,/!>(!B,/^G,/A,/!>)!C/ | F/^G,/A,/^F,/G,/B,/ | E/^F,/^G,/E,/F,/A,/ | ^D,^F,D, | %115
 E,/!courtesy!=D,/B,,/^G,,/B,,/D,/ | C,,D,,E,, | F,,A,,D, | ^D,E,E,, | A,,3 |] %120
[M:4/4] z/ A,,/C,/E,/ | A,B,CD E z/4 C/4B,/4A,/4 ^G,/A,/4B,/4E,/^F,/4G,/4 | %122
 A,CD!courtesy!=G, C z/4 C,/4E,/4G,/4 C3/2B,/4A,/4 | %123
 D z/4 D,/4^F,/4A,/4 D3/2C/4B,/4 E z/4 C/4B,/4A,/4 ^G,-E, | %124
 G,A,- A,^G, A,/>E,/D,/4C,/4D,/4E,/4 A,,/>(A,/=G,/>F,/) | %125
 E,2 ^F,2 G,2- G,/4A,/4G,/4F,/4G,/4E,/4G,/4B,/4 | C2- C/>C/B,/>A,/!p! B,2 A,2 | %127
 G,2 ^F,2 z/ B,/G,/>B,/ ^C,/>E,/^A,/>!courtesy!^F,/ | =CB,/>A,/ B,2 E,,2 z2 :: z/ E,,/^G,,/B,,/ | %130
 E,3 E,!>(! A,!>)!A,/4B,/4A,/4^G,/4 A,/>E,/C,/>E,/ | A,,3 A,, D,D,/4F,/4E,/4D,/4 _B,/>A,/B,/>G,/ | %132
"^dim. poco a poco" !courtesy!=C-C/4E,/4D,/4C,/4 A,/>G,/A,/>F,/ _B,-B,/4A,/4G,/4F,/4 E,/>F,/G,/>E,/ | %133
 ^CD A,A,,!p! A,(A,F,D,) | G,4 C, x x2 | F,^G,,A,,^F,, E,,/4B,,/4C,/4D,/4E, ^F,^G, | %136
 E,E,- E,E,- E,A, ^F,/>A,/^G,/->=F,/ | G,A, E,2 A,,2 :|[M:3/4] z2 | A,, z C, z E, z | %140
 z/!f! ^G,/A,/B,/ C/E/D/E/ G,/E/D/E/ | A,/C/D/E/ F>^G, A,>F, | %142
 E,2- E,/!<(!^G,/B,/!<)!!>(!G,/ E,/G,/D,/G,/!>)! | C,>E, A,,>B,, C,>E, | A,>A,, D,>E, F,>A, | %145
 D>D, G,>A, B,>D | G>G, C>D E>C | F>F, F>F, F2- | F/D/E/F/ E/D/"^dim."C/B,/ A,/G,/F,/E,/ | %149
 D,>D,, D,>D,, D,2- | D,/B,,/C,/D,/ C,/B,,/A,,/G,,/ F,,/E,,/D,,/C,,/ | B,,,>^G,, A,,>C,, F,,>D,, | %152
 E,,2 z z/ (A,/ ^G,>D | C2) z z/ B,/ C>A, | ^G,2 z z/ A,/ G,/D/B,/G,/ | A,/C/A,/E,/ PF,3 E,/F,/ | %156
 E,/^G,/B,/G,/ z z/ (^G,/ A,>C | B,2) z z/ ^G,/ A,>^F, | E,4 :: z2 | E,, z E, z ^G, z | %161
 z/ ^G,/A,/B,/ C/E,/D,/C,/ B,,/D,/C,/B,,/ | A,,>C, D,>=F, ^G,>B, | %163
 !wedge!E/E,/^F,/!<(!^G,/ A,/C/!<)!E/C/!>(! A,/C/=G,/!>)!C/ | =F,2- F,/E,/D,/C,/ D,>F, | %165
 B,,>D, G,>F, E,>G, | C,>E, A,>G, F,>A, | !wedge!B,,/E/D/C/ B,/D/E/F/ G,/D/C/B,/ | %168
 E>A,, A,>A,, A,2- | A,/F,/G,/A,/ G,/F,/E,/D,/"^dim." C,/B,,/A,,/G,,/ | %170
 F,,/A,,/G,,/F,,/ F,>F,, F,2- | F,/D,/E,/F,/ E,/D,/C,/B,,/ A,,/G,,/F,,/E,,/ | %172
 D,,>B,, C,>G,, A,,>F,, | .G,,/(F,/E,/D,/ .G,,/)(E,/D,/C,/ .G,,/)(D,/C,/B,,/ | %174
"^cresc. poco a poco" .G,,/)C,/B,,/A,,/ B,,/G,,/A,,/B,,/ C,/G,,/B,,/C,/ | %175
 D,/G,,/A,,/B,,/ C,/E,/D,/C,/ B,,/A,,/G,,/F,,/ | E,,>E, F,>F,, G,,>G, | A,>A,, B,,>B, C>C, | %178
 D,>D E>E, F,>F | G,/B,/D/F/ E>G, F,>D | C>E, A,>F, G,>G,, | .C,/(C,,/E,,/G,,/ C,2-) C,/E,/F,/G,/ | %182
 ^C,/E,/G,- G,/E,/F,/G,/ F,/E,/D,/C,/ | D,/(D,,/F,,/A,,/ D,2-) D,/F,/"_dim."G,/A,/ | %184
 ^D,/^F,/A,- A,/F,/G,/A,/ G,/F,/E,/D,/ | .E,/(E,,/G,,/B,,/ E,2-) E,/C,/!courtesy!=D,/E,/ | %186
 !courtesy!=F,/E,/F,/G,/ A,/B,/^C/D/ E>A, | D>A, !courtesy!=C>A, B,>E, | A,>C, F,>^G,, A,,>F,, | %189
 E,,2- E,,!<(!^F,,/^G,,/ A,,/B,,/C,/D,/!<)! | E,>E,, E,>E,, E,>E,, | E,>E,, E,>E,, E,>E,, | %192
 E,>C, D,>B,, C,>A,, | D,,2- D,,/E,,/^F,,/^G,,/ A,,/G,,/A,,/B,,/ | %194
 C,/B,,/!>(!C,/D,/ E,/D,/C,/D,/!>)! E,>E,, | A,,4 :|[M:3/4] z z2 | %197
 z2 z!<(! (A,!<)!!>(!M^G,!>)!A,) | (E,(3F,/E,/D,/ .E,)(.E,,.E,,.E,,) | %199
 (E,(3F,/E,/D,/ .E,)(.E,,.E,,.E,,) | (C,(3D,/C,/B,,/ .C,)(.E.^F.^G) | (AA,)(A,A)(AA,) | EE,E,EEE, | %203
 F,E,D,G,CF, | (G,G,,)(G,,G,)(G,G,,) | G,G,,G,,G,G,G,, | G,G,,G,,(G, (3F,/E,/F,/ (3G,/F,/E,/) | %207
 (F,D,E,C,G,G,,) | (C,G,,C,,) :|!p!!<(! (C!>(!MB,!<)!C)!>)! | (G,(3A,/G,/^F,/ .G,)(.G,,.G,,.G,,) | %211
 G,,2 z!<(! (D!>(!M^C!<)!!>)!D) | (A,(3B,/A,/^G,/ .A,)(.A,,.A,,.A,,) | A,,2 z A,M!courtesy!=G,A, | %214
 (D,(3E,/D,/^C,/ .D,)(DM^CD) | (G,(3A,/G,/F,/ .G,)(CM_B,C) | (F,(3G,/F,/E,/ .F,)(_B,G,A,) | %217
 (D,A,,.D,,) (3(A,/G,/F,/) (3(F,/E,/D,/) (3(D,/C,/!courtesy!=B,,/) | %218
 (3(B,,/A,,/G,,/) (3(G,,/A,,/B,,/) (3(B,,/C,/D,/) (3(D,/E,/F,/ G,G,,) | %219
 (3(C,/D,/E,/) (3(E,/F,/G,/) (3(G,/A,/B,/) (CB,A,) | ^G,^F, G,!>(!A,=F,!>)!D, | %221
 (E,E,,)(E,,E,)(E,E,,) | E,E,,E,,E,E,E,, | D,D,,.D,,(C (3B,/A,/B,/ (3C/B,/A,/) | %224
 (^G,E,C,A,,E,E,,) | A,,E,A, :|[M:3/4] !wedge![C,E,A,]2 z2 z2 | (A,.B,) (PB,A,/B,/ CA,) | %228
 (^G,2 A,2 F,2) | (E,.^F,) (PF,E,/F,/ ^G,E,) | (A,.A,,)[K:treble] z/ A/G/F/ z/ G/F/E/ | %231
 FF, z/ F/E/D/ z/ E/D/C/ | DB, CA,/B,/ CD |!>(! EFEDC!>)!B, | %234
[K:bass] (A,.A,,) z/ A,/G,/F,/ E,/G,/E,/C,/ | (F,.F,,)(A,G,)(G,^F,) | %236
 (^F,.^F,,) z/ F,/G,/A,/ G,/F,/E,/D,/ | (G,.G,,)(B,A,)(A,^G,) | ^G,/F/E/D/ C/E/D/C/ B,/D/C/B,/ | %239
 A,2 =G,2 ^F,2 | E,^F,/G,/ A,,2 B,,2 |1 E,,B,,E,!<(!D,C,B,,!<)! :|2 E,,2 B,,2 E,2 |: %243
 (^G,.A,) (PA,G,/A,/ B,) z | B,2 B,2 B,2 |!mf! =G,4 z2 | ^C2 C2 C2 | %247
 DD,[K:treble] z/ d/c/_B/ z/ c/B/A/ | _B_B, z/ B/A/G/ z/ A/G/F/ | GG,[K:bass] A,2 A,,2 | %250
 (D,A,,/G,,/ F,,/G,,/A,, D,,2) | z/ D,/E,/F,/!<(! G,/A,/B,/^C/ D/E/!<)!F/D/ | G!>(!DG,D,!>)! G,,2 | %253
 z/ C,/D,/E,/!<(! F,/G,/A,/B,/ C/D/E/!<)!C/ | F!>(!CF,C,!>)! F,,2 | z B,,!<(!C,D,E,!<)!^F, | %256
 ^G,(E,^F,G,A,B, | CB,CD^G,A,) | ^G,/A,/B,- B,/A,/G,/^F,/ E,/D,/C,/B,,/ | (C,C)(B,C,^C,A,) | %260
 (D,D)(!courtesy!=CD,^D,B,) | (E,E)(!courtesy!=DE,!courtesy!=F,D) | CB,A,F!courtesy!=G,E | %263
 F,DE,^C z D | ^G, B,2 A,2 G, | A,2 D,,2 E,,2 | z2 E,2 A,2 :|[M:2/4] [E,A,] z | [E,A,] z ^G, z | %269
 A, z [E,A,] z | [E,A,] z ^G, z | A, z .A,,.A, | .G,.G,,.F,,.F, | .E,.E,,.A,,.F, | .E,.G,,.F,,.D, | %275
 .C,.E,,.G,,.C, | .F,,.A,,.D,.F,- | F,/E,/D,/C,/ B,,/A,,/G,,/F,,/ | E,,A,,F,,G,, | .C,,2 :: %280
 [E,G,C] z | C z B, z | C z D z | _B, z [E,A,] z | A, z .D.D, | .C,.C._B,._B,, | .A,,.A,.G,G,,- | %287
 G,,/E,/F,/G,/ A,A,, | D,/A,,/F,,/A,,/ (D,,F,,/A,,/) | .D,.C,.B,,.A,, | %290
 (G,,A,,/B,,/) C,/D,/E,/C,/ | .F,.E,.D,.C, | .D,.C,.B,,.A,, | .B,,.A,,.^G,,.^F,, | %294
 .^G,,.E,.^F,.^G, | .A,.!courtesy!=F,.D,.F, | (E,D,) [E,^G,A,] z | [D,F,B,] z [B,,D,F,] z | %298
 !>![B,,D,]/ x7/2 | .A,.C,.D,.E, | .A,,2 |][M:12/8] z | z12 | z6 z3 z z!p! .A, | %304
 (E,^G,B, E^DE) (^F,A,B, EDE) | !courtesy!=G,B,^D E^FG A,GE =FAE | ^D3- D^CD E3- EB,=D | %307
 ^C3- CB,C D3- DA,=C | B,2 C B,2 A, ^G,2 B, G,3 | A,,C,E, A,^G,A, B,,D,E, A,G,A, | %310
 C,E,^G, A,B,C D,CA, _B,DA, | ^G,2 !courtesy!=B, G,2 E, A,,C,E, A,CA, | %312
 ^F,A,D D,F,A, !courtesy!=G,,B,,D, G,B,G, | E,G,C C,E,G, ^F,,A,,C, ^F,A,F, | %314
 ^D,^F,B, B,,D,F, E,,G,,B,, E,D,E, | ^F,,A,,B,, E,^D,E, G,,B,,D, E,^F,G, | %316
 A,,G,E, =F,A,E, ^D,3- D,^C,D, | E,,G,,B,, E,G,E, ^C,3- C,B,,C, | %318
 D,,F,,A,, D,F,D, B,,3- B,,A,,B,, | C,,E,,G,, C,E,C, F,,A,,C, F,A,F, | B,,D,F, B,DB, E,^G,B, E^GD | %321
 z3 E3 F2 E D3 | E2 B, C2 E A,3 D3- | D^G,B, z3 A,,C,E, A,CA, | z F,A, z3 G,,B,,D, G,B,G, | %325
 C,2 A,, x x2 E,,^G,,B,, E,3 ::!mf! .B, | (EB,^G, E,^D,E,)"^dim." (=DB,G, E,^D,E,) | %328
 CA,F, E,^G,A, F,!courtesy!=D,B,, ^G,,E,D, | C,3- C,B,,C, ^C,3- C,B,,C, | %330
 D,3- D,E,F, !courtesy!=G,, z z A,, z z |!p! D,,A,F, D,A,,!courtesy!=C, !courtesy!=B,,6- | %332
 B,,G,E, C,^G,,B,, A,,6- | A,,F,D, B,,^F,,A,, ^G,,3- G,,E,,G,, | %334
 A,,3- A,,!courtesy!=F,,A,, B,,3- B,,!courtesy!=G,,B,, | C,3- C,A,,^C, D,6- | ^G,3 A,6 G,3 | %337
 A,3 z3 z3 B,3- | B,C,E, A,B,C DA,B, ^F,G,A,- | A,B,,D, G,A,B, CG,A, E,^F,G,- | %340
 G,A,,C, ^F,G,A, B,F,G, ^D,E,F,- | F,EB, G,^F,G, A,,^C,E, A,^G,A, | %342
[I:staff -1] CD[I:staff +1]A, ^F,^E,F, z D^C B,^A,B,- | B,^C^A, E,^D,E, ECB, ^A,^G,A, | %344
 ^F,3 z3 B,3 z3 | B,2 z z3 z3 B, z z | E, z z z3 z6 | z6 z3 z z .E |!f! AEC A,^G,A, =GE^C A,^G,A, | %349
 FD_B, A,^CD B,!courtesy!=G,E, ^C,A,G, | F,A,^C DA,F, D,F,^G, A,F,D, | %351
 B,,D,^G, A,,D,F, ^G,,B,,D, F,E,D, | C,B,,A,, E,2 E,, A,,^C,E, A,3 :| %353
V:3
 x3 | x3 | x3 | x3 | x3 | x3 | x3 | x3 | x3 | x3 | x3 | x3 | x3 | x3 | x3 | x3 | x3 | x3 | x3 | %19
 x3 | x3 | x3 | x3 | x3 | x3 | x3 | x3 | x3 | x3 | x3 | x3 | x3 | x3 | x3 | x3 | x3 | x3 | x3 | %38
 x3 | x3 | x3 | x3 | x3 | x3 | x3 | x3 | x3 | x3 | x3 | x3 | x3 | x3 | x3 | x3 | x3 | x3 | x3 | %57
 x3 | x3 | x3 | x3 | x3 | x3 | x3 | x3 | x3 | x3 | x3 | x3 | x3 | x3 | x3 | x3 | x3 | x3 | x3 | %76
 x3 | x3 | x3 | x3 | x3 | x3 | x3 | x3 | x3 | x3 | x3 | x3 | x3 | x3 | x3 | x3 | x3 | x3 | x3 | %95
 x3 | x3 | x3 | x3 | x3 | x3 | x3 | x3 | x3 | x3 | x3 | x3 | x3 | x3 | x3 | x3 | x3 | x3 | x3 | %114
 x3 | x3 | x3 | x3 | x3 | x3 |][M:4/4] x2 | x4 ^G [EGB]- [EGB] x | %122
 z/4 B/4A/4^G/<A/E/4 F>D (DC) x3/4 E x/4 | ^F/G/4A/4-"_cresc."A x3/4 F x/4 ^G/A/4B/4-B x3/4 d x/4 | %124
 d/4d/4c/4B/4c B2 x4 | x2 z/ c/d/>A/ B2[I:staff +1] G[I:staff -1] z | %126
 z[I:staff +1] E A>G ^F/4G/4F/4E/4F/4^D/4E/4F/4[I:staff -1] z[I:staff +1] F | %127
 x2[I:staff -1] ^f2 G2 ^a2 | x4 B2 x2 :: x2 | x4 c2 x2 | x4 f2 x3/4 d x/4 | %132
 e/f/4g/4-!courtesy!=c- x2 d/e/4f/4-_B- x3/4 B x/4 | %133
 A2 G2- G/4G/4F/4E/4F/4G/4A/4F/4 D/4F/4A/4B/4=c/4B/4A/4c/4 | %134
 x2 z/!mf! c/d/>B/ G2- G/4G/4!courtesy!=F/4E/<F/D/4 | %135
 B,E E/4A/4B/4c/4^D z z/4 =F/4E/4=D/4 z/4 F/4E/4D/4 z/4 F/4E/4D/4 | x6 ^d2 | x2 ED DC :| %138
[M:3/4] x2 | x6 | x6 | x6 | x6 | x6 | x6 | x6 | x6 | x6 | x6 | x6 | x6 | x6 | x6 | x6 | x6 | x6 | %156
 x6 | x6 | x2 [G,B,]2 :: x2 | x6 | x6 | x6 | x6 | x6 | x6 | x6 | x6 | x6 | x6 | x6 | x6 | x6 | x6 | %174
 x6 | x6 | x6 | x6 | x6 | x6 | x6 | x6 | x6 | x6 | x6 | x6 | x6 | x6 | x6 | x6 | x6 | x6 | x6 | %193
 x6 | x6 | A2- A2 :|[M:3/4] x3 | z2 z CB,C | (A^G) z CB,C | BA z CB,C | A^G z GAB | c6- | g6- | %203
 A2 z !courtesy!=B c2 | cB z ede | B2 z2 z2 | c2 z ede | B2 z (AGF | E3) :| z z2 | %210
 z2 z (3e/d/c/ (3d/c/B/ (3c/B/A/ | (3B/A/G/ (3c/B/A/ B z z2 | z2 z A!courtesy!=GF | %213
 E^G A(3A/B/^c/ (3c/d/e/(3e/f/=g/ | (3f/e/f/(3g/f/e/ !>!f4- | f2 !>!e4- | e2 dFGE | F3 d dd | %218
 d3 dcB | c2 z[I:staff +1] EDC | x6 | B,[I:staff -1] z z A^GA | !>!B2 z ^GAB | ^G2 z ede | %224
 B2 z (FED | C3) :|[M:3/4] x6 | x6 | x6 | x6 | x2 c2 B2 | x2 A2 =G2 |[I:staff +1] F2 E2 x2 | x6 | %234
[I:staff -1] z (E/!courtesy!=F/) PF3/2E/4F/4 GC | A2 z2 z2 | z (A/B/) PB3/2A/4B/4 cA | B2 z2 z2 | %238
 z ^G ABcd | e[I:staff +1] ^F2 E2 ^D | E2[I:staff -1] z c2 B |1 (A2 ^G4) :|2 (A2 ^G4) |: x6 | x6 | %245
[I:staff +1] (E.F) (PFE/F/ G)[I:staff -1] z |[I:staff +1] E2 E2 E2 | D2[I:staff -1] f2 e2 | %248
 x2 d2 =c2 | _B2 AGFE | F6 | z d^cdAd- | d z z2 z2 | z cBcGc- | c z z2 z2 | x6 | x6 | x6 | x6 | %259
 x6 | x6 | x6 | x6 | x6 | x6 | x2 z F2 E | (D2 C4) :|[M:2/4] x2 | x4 | x4 | x4 | x4 | x4 | x4 | %274
 x4 | x4 | x4 | x4 | x4 | x2 :: x2 | x4 | x4 | x4 | x4 | x4 | x4 | x4 | x4 | x4 | x4 | x4 | x4 | %293
 x4 | x4 | x4 | x4 | x4 | x4 | x4 | x2 |][M:12/8] x | x12 | x12 | x12 | x12 | x12 | x12 | x12 | %309
 z2 ^G A3 A2"_cresc." G B3- | BAB c3- cA^c df=c | B6 z AE CEA | D z z z3 z GD B,DG | %313
 C z z z3 z ^FE ^DEF | B, z z z3 G3 G^FG | A3- ABc B3- B^de | c6- cBA B^fA | G6- GAG AeG | %318
 !courtesy!=F6- FGF GdF | E6- E2 A, D3- | DFA ^GBA B2 z z3 | x12 | x12 | x3 E^GE A2 z z3 | %324
 x3 DFD G2 z z3 | z z c (B A2-) A/c/B/A/^G/^F/ E3 :: x | x12 | x12 | x12 | x12 | x12 | x12 | x12 | %334
 x12 | x12 | x12 | x12 | x12 | x12 | x12 | x6 z E=D ^CB,C- | x12 | x12 | x12 | x9 z z B | %346
 eBG E^DE =dB^G E^DE | cA!courtesy!=F E^GA F!courtesy!=DB, ^G,ED | C z z z Bc Pc3- cBc | %349
 d3- def e3- e^ce | A3- A2 ^c d3- d2 A | d2 d d2 B B2 ^G G2 G | %352
 A3- A2 ^G A/F/E/D/^C/[I:staff +1]B,/ A,3 :| %353
V:4
 x3 | x3 | x3 | x3 | x3 | x3 | x3 | x3 | x3 | x3 | x3 | x3 | x3 | x3 | x3 | x3 | x3 | x3 | x3 | %19
 x3 | x3 | x3 | x3 | x3 | x3 | x3 | x3 | x3 | x3 | x3 | x3 | x3 | x3 | x3 | x3 | x3 | x3 | x3 | %38
 x3 | x3 | x3 | x3 | x3 | x3 | x3 | x3 | x3 | x3 | x3 | x3 | x3 | x3 | x3 | x3 | x3 | x3 | x3 | %57
 x3 | x3 | x3 | x3 | x3 | x3 | x3 | x3 | x3 | x3 | x3 | x3 | x3 | x3 | x3 | x3 | x3 | x3 | x3 | %76
 x3 | x3 | x3 | x3 | x3 | x3 | x3 | x3 | x3 | x3 | x3 | x3 | x3 | x3 | x3 | x3 | x3 | x3 | x3 | %95
 x3 | x3 | x3 | x3 | x3 | x3 | x3 | x3 | x3 | x3 | x3 | x3 | x3 | x3 | x3 | x3 | x3 | x3 | x3 | %114
 x3 | x3 | x3 | x3 | x3 | x3 |][M:4/4] x2 | x8 | x8 | ^F2 x2 ^G2 x2 | x8 | x8 | x8 | %127
 z[I:staff +1] E2 ^D E2 x2 |[I:staff -1] ^d>e c/4B/4A/-A A^G x2 :: x2 | x5 A- x2 | x5 d2- x | %132
 z g x3/4 c3/2 z x11/4 | x8 | x8 | x8 | x8 | x4 E2 :|[M:3/4] x2 | x6 | x6 | x6 | x6 | x6 | x6 | %145
 x6 | x6 | x6 | x6 | x6 | x6 | x6 | x6 | x6 | x6 | x6 | x6 | x6 | x4 :: x2 | x6 | x6 | x6 | x6 | %164
 x6 | x6 | x6 | x6 | x6 | x6 | x6 | x6 | x6 | x6 | x6 | x6 | x6 | x6 | x6 | x6 | x6 | x6 | x6 | %183
 x6 | x6 | x6 | x6 | x6 | x6 | x6 | x6 | x6 | x6 | x6 | x6 | x E x2 :|[M:3/4] x3 | x6 | x6 | x6 | %200
 x6 | x6 | x6 | x6 | x6 | x6 | x6 | x6 | x3 :| x3 | x6 | x6 | x6 | x6 | x6 | x6 | x6 | x6 | x6 | %219
 x6 | x6 | x6 | x6 | x6 | x6 | x3 :|[M:3/4] x6 | x6 | x6 | x6 | x6 | x6 | x6 | x6 | x6 | x6 | x6 | %237
 x6 | x6 | x6 | x6 |1 x6 :|2 x6 |: x6 | x6 | x6 | x6 | x6 | x6 | x6 | x6 | x6 | x6 | x6 | x6 | x6 | %256
 x6 | x6 | x6 | x6 | x6 | x6 | x6 | x6 | x6 | x6 | x6 :|[M:2/4] x2 | x4 | x4 | x4 | x4 | x4 | x4 | %274
 x4 | x4 | x4 | x4 | x4 | x2 :: x2 | x4 | x4 | x4 | x4 | x4 | x4 | x4 | x4 | x4 | x4 | x4 | x4 | %293
 x4 | x4 | x4 | x4 | x4 | x4 | x4 | x2 |][M:12/8] x | x12 | x12 | x12 | x12 | x12 | x12 | x12 | %309
 x12 | x12 | x12 | x12 | x12 | x12 | x12 | x12 | x12 | x12 | x12 | x12 | x12 | x12 | x12 | x12 | %325
 x12 :: x | x12 | x12 | x12 | x12 | x12 | x12 | x12 | x12 | x12 | x12 | x12 | x12 | x12 | x12 | %341
 x12 | x12 | x12 | x12 | x12 | x12 | x12 | x12 | x12 | x12 | x12 | x12 :| %353
V:5
 x3 | x3 | x3 | x3 | x3 | x3 | x3 | x3 | x3 | x3 | x3 | x3 | x3 | x3 | x3 | x3 | x3 | x3 | x3 | %19
 x3 | x3 | x3 | x3 | x3 | x3 | x3 | x3 | x3 | x3 | x3 | x3 | x3 | x3 | x3 | x3 | x3 | x3 | x3 | %38
 x3 | x3 | x3 | x3 | x3 | x3 | x3 | x3 | x3 | x3 | x3 | x3 | x3 | x3 | x3 | x3 | x3 | x3 | x3 | %57
 x3 | x3 | x3 | x3 | x3 | x3 | x3 | x3 | x3 | x3 | x3 | x3 | x3 | x3 | x3 | x3 | x3 | x3 | x3 | %76
 x3 | x3 | x3 | x3 | x3 | x3 | x3 | x3 | x3 | x3 | x3 | x3 | x3 | x3 | x3 | x3 | x3 | x3 | x3 | %95
 x3 | x3 | x3 | x3 | x3 | x3 | x3 | x3 | x3 | x3 | x3 | x3 | x3 | x3 | x3 | x3 | x3 | x3 | x3 | %114
 x3 | x3 | x3 | x3 | x3 | x3 |][M:4/4] x2 | x8 | x8 | x D x3 E x2 | x8 | x8 | x8 | x8 | x8 :: x2 | %130
 x8 | x8 | x5 f x2 | x8 | x8 | x8 | x8 | x6 :|[M:3/4] x2 | x6 | x6 | x6 | x6 | x6 | x6 | x6 | x6 | %147
 x6 | x6 | x6 | x6 | x6 | x6 | x6 | x6 | x6 | x6 | x6 | x4 :: x2 | x6 | x6 | x6 | x6 | x6 | x6 | %166
 x6 | x6 | x6 | x6 | x6 | x6 | x6 | x6 | x6 | x6 | x6 | x6 | x6 | x6 | x6 | x6 | x6 | x6 | x6 | %185
 x6 | x6 | x6 | x6 | x6 | x6 | x6 | x6 | x6 | x6 | x4 :|[M:3/4] x3 | x6 | x6 | x6 | x6 | x6 | x6 | %203
 x6 | x6 | x6 | x6 | x6 | x3 :| x3 | x6 | x6 | x6 | x6 | x6 | x6 | x6 | x6 | x6 | x6 | x6 | x6 | %222
 x6 | x6 | x6 | x3 :|[M:3/4] x6 | x6 | x6 | x6 | x6 | x6 | x6 | x6 | x6 | x6 | x6 | x6 | x6 | x6 | %240
 x6 |1 x6 :|2 x6 |: x6 | x6 | x6 | x6 | x6 | x6 | x6 | x6 | x6 | x6 | x6 | x6 | x6 | x6 | x6 | x6 | %259
 x6 | x6 | x6 | x6 | x6 | x6 | x6 | x6 :|[M:2/4] x2 | x4 | x4 | x4 | x4 | x4 | x4 | x4 | x4 | x4 | %277
 x4 | x4 | x2 :: x2 | x4 | x4 | x4 | x4 | x4 | x4 | x4 | x4 | x4 | x4 | x4 | x4 | x4 | x4 | x4 | %296
 x4 | x4 | x4 | x4 | x2 |][M:12/8] x | x12 | x12 | x12 | x12 | x12 | x12 | x12 | x12 | x12 | x12 | %312
 x12 | x12 | x12 | x12 | x12 | x12 | x12 | x12 | x12 | x12 | x12 | x12 | x12 | x12 :: x | x12 | %328
 x12 | x12 | x12 | x12 | x12 | x12 | x12 | x12 | x12 | x12 | x12 | x12 | x12 | x12 | x12 | x12 | %344
 x12 | x12 | x12 | x12 | x12 | x12 | x12 | x12 | x12 :| %353
V:6
 x3 | x3 | x3 | x3 | x3 | x3 | x3 | x3 | x3 | x3 | x3 | x3 | x3 | x3 | x3 | x3 | x3 | x3 | x3 | %19
 x3 | x3 | x3 | x3 | x3 | x3 | x3 | x3 | x3 | x3 | x3 | x3 | x3 | x3 | x3 | x3 | x3 | x3 | x3 | %38
 x3 | x3 | x3 | x3 | x3 | x3 | x3 | x3 | x3 | x3 | x3 | x3 | x3 | x3 | x3 | x3 | x3 | x3 | x3 | %57
 x3 | x3 | x3 | x3 | x3 | x3 | x3 | x3 | x3 | x3 | x3 | x3 | x3 | x3 | x3 | x3 | x3 | x3 | x3 | %76
 x3 | x3 | x3 | x3 | x3 | x3 | x3 | x3 | x3 | x3 | x3 | x3 | x3 | x3 | x3 | x3 | x3 | x3 | x3 | %95
 x3 | x3 | x3 | x3 | x3 | x3 | x3 | x3 | x3 | x3 | x3 | x3 | x3 | x3 | x3 | x3 | x3 | x3 | x3 | %114
 x3 | x3 | x3 | x3 | x3 | x3 |][M:4/4] x2 | x8 | x8 | x6 ^G,2 | C,F,[D,F,]E, A,2- A,/ x3/2 | %125
 z G, z A, z D x2 | x8 | x8 | x2 B,B,, x4 :: x2 | z ^G,2 G, x4 | z ^C,2 C, x4 | x8 | %133
 x2 A,2- D,2 z2 | z D,B,,G,, C,2- C,/>^C,/D,/>E,/ | x4 E,,E,- E,2- | [A,C]2 [B,D]2 [CE]2 x ^G, | %137
 B,,C,/>D,/ E,E,, A,,,2 :|[M:3/4] x2 | x6 | x6 | x6 | x6 | x6 | x6 | x6 | x6 | x6 | x6 | x6 | x6 | %151
 x6 | x6 | x6 | x6 | x6 | x2 E,4- | E,/^G,/B,/G,/ E,4 | z2 E,,2 :: x2 | x6 | x6 | x6 | x6 | x6 | %165
 x6 | x6 | x6 | x6 | x6 | x6 | x6 | x6 | x6 | x6 | x6 | x6 | x6 | x6 | x6 | x6 | x6 | x6 | x6 | %184
 x6 | x6 | x6 | x6 | x6 | x6 | x6 | x6 | x6 | x6 | x6 | z2 A,2 :|[M:3/4] x3 | x6 | x6 | x6 | x6 | %201
 x6 | x6 | x6 | x6 | x6 | x6 | x6 | x3 :| x3 | x6 | x6 | x6 | x6 | x6 | x6 | x6 | x6 | x6 | x6 | %220
 B,A,B,EDC | x6 | x6 | x6 | x6 | A,,3 :|[M:3/4] !>!A,,2 z2 z2 | x6 | x6 | x6 | x2[K:treble] x4 | %231
 x6 | x6 | x6 |[K:bass] x6 | x6 | x6 | x6 | x6 | x6 | x6 |1 x6 :|2 x6 |: E,4 z2 | ^G,2 G,2 G,2 | %245
 x6 | x6 | x2[K:treble] x4 | x6 | x2[K:bass] x4 | x6 | x6 | x6 | x6 | x6 | x6 | x6 | x6 | x6 | x6 | %260
 x6 | x6 | x6 | x4 D,2- | D,2 !courtesy!=C,2 B,,2 | A,,B,,/C,/ x2 x2 | A,,6 :| %267
[M:2/4] !wedge![A,,C,] z | !wedge!C, z !wedge!E, z | A, z [A,,C,] z | C, z E, z | A, x3 | x4 | x4 | %274
 x4 | x4 | x4 | x4 | x4 | x2 :: !wedge!C, z | !wedge![E,G,] z !wedge!G, z | C z [F,A,] z | %283
 G, z ^C, z | D, x3 | x4 | x4 | x4 | x4 | x4 | x4 | x4 | x4 | x4 | x4 | x4 | x2 !wedge!C, z | %297
 !wedge!B,, z !wedge!A,, z | x/ x7/2 | x4 | x2 |][M:12/8] x | x12 | x12 | x12 | x12 | x12 | x12 | %308
 z6 z3 z z E, | x12 | x12 | x12 | x12 | x12 | x12 | x12 | x12 | x12 | x12 | x12 | x12 | %321
 C6 D2 C B,3 | A,3- A,2 =G, F,6 | E,2 z x9 | D,2 z x9 | x3 F,2 F,, x6 :: x | x12 | x12 | %329
 x3 A,^G,A, x3 A,^G,A, | x12 | x12 | x12 | x12 | x12 | E,^G,A, CE=G, F,A,_B, DFA, | %336
 D,3 =C,3 B,,3 E,3 | A,,3 C,3 D,3 E,3 | !>!A,,3 z3 z6 | !>!G,,3 z3 z6 | !>!^F,,3 z3 z6 | %341
 E,,G,,B,, E,^D,E, x6 | D,,^F,,A,, D,^C,D, G,,B,,D, G,^F,G, | %343
 ^C,,E,,G,, ^C,B,,C, ^F,,^A,,C, ^F,^E,F, | !courtesy!=D,3- D,^C,D, ^D,3- D,C,D, | %345
 E,3- E,^F,G, A, z z x3 | x12 | x12 | x12 | x12 | x12 | x12 | x12 :| %353
V:7
 x3 | x3 | x3 | x3 | x3 | x3 | x3 | x3 | x3 | x3 | x3 | x3 | x3 | x3 | x3 | x3 | x3 | x3 | x3 | %19
 x3 | x3 | x3 | x3 | x3 | x3 | x3 | x3 | x3 | x3 | x3 | x3 | x3 | x3 | x3 | x3 | x3 | x3 | x3 | %38
 x3 | x3 | x3 | x3 | x3 | x3 | x3 | x3 | x3 | x3 | x3 | x3 | x3 | x3 | x3 | x3 | x3 | x3 | x3 | %57
 x3 | x3 | x3 | x3 | x3 | x3 | x3 | x3 | x3 | x3 | x3 | x3 | x3 | x3 | x3 | x3 | x3 | x3 | x3 | %76
 x3 | x3 | x3 | x3 | x3 | x3 | x3 | x3 | x3 | x3 | x3 | x3 | x3 | x3 | x3 | x3 | x3 | x3 | x3 | %95
 x3 | x3 | x3 | x3 | x3 | x3 | x3 | x3 | x3 | x3 | x3 | x3 | x3 | x3 | x3 | x3 | x3 | x3 | x3 | %114
 x3 | x3 | x3 | x3 | x3 | x3 |][M:4/4] x2 | x8 | x8 | x8 | x8 | x8 | x8 | x8 | x8 :: x2 | %130
 z2 B,2 MA,- x3 | z2 E,2 D,- x3 | x8 | x8 | x8 | x8 | x8 | F, E, x4 :|[M:3/4] x2 | x6 | x6 | x6 | %142
 x6 | x6 | x6 | x6 | x6 | x6 | x6 | x6 | x6 | x6 | x6 | x6 | x6 | x6 | x6 | x6 | x4 :: x2 | x6 | %161
 x6 | x6 | x6 | x6 | x6 | x6 | x6 | x6 | x6 | x6 | x6 | x6 | x6 | x6 | x6 | x6 | x6 | x6 | x6 | %180
 x6 | x6 | x6 | x6 | x6 | x6 | x6 | x6 | x6 | x6 | x6 | x6 | x6 | x6 | x6 | x4 :|[M:3/4] x3 | x6 | %198
 x6 | x6 | x6 | x6 | x6 | x6 | x6 | x6 | x6 | x6 | x3 :| x3 | x6 | x6 | x6 | x6 | x6 | x6 | x6 | %217
 x6 | x6 | x6 | x6 | x6 | x6 | x6 | x6 | x3 :|[M:3/4] x6 | x6 | x6 | x6 | x2[K:treble] x4 | x6 | %232
 x6 | x6 |[K:bass] x6 | x6 | x6 | x6 | x6 | x6 | x6 |1 x6 :|2 x6 |: x6 | x6 | x6 | x6 | %247
 x2[K:treble] x4 | x6 | x2[K:bass] x4 | x6 | x6 | x6 | x6 | x6 | x6 | x6 | x6 | x6 | x6 | x6 | x6 | %262
 x6 | x6 | x6 | x6 | x6 :|[M:2/4] x z | x z x z | x z x z | x z x z | x4 | x4 | x4 | x4 | x4 | x4 | %277
 x4 | x4 | x2 :: x z | x z x z | x z x z | x z x z | x4 | x4 | x4 | x4 | x4 | x4 | x4 | x4 | x4 | %293
 x4 | x4 | x4 | x3 z | x z x z | ^G,,/A,,/B,,/C,/ D,/E,/^F,/^G,/ | x4 | x2 |][M:12/8] x | x12 | %303
 x12 | x12 | x12 | x12 | x12 | x12 | x12 | x12 | x12 | x12 | x12 | x12 | x12 | x12 | x12 | x12 | %319
 x12 | x12 | x12 | x12 | x12 | x12 | x12 :: x | x12 | x12 | x12 | x12 | x12 | x12 | x12 | x12 | %335
 x12 | x12 | x12 | x12 | x12 | x12 | x12 | x12 | x12 | x12 | x12 | x12 | x12 | x12 | x12 | x12 | %351
 x12 | x12 :| %353

